X: 117
T: Szczęśliwi, którzy się Pańskim zakonem sprawują
C: Mikołaj Gomółka
%%abc-version 2.0
%%abcx-abcm2ps-target-version 5.9.1 (29 Sep 2008)
%%abc-creator hum2abc beta
%%abcx-conversion-date 2021/10/04 07:59:09
%%abc-edited-by Leszek Kubiak
%%abcx-initial-encoding-date data 2020-02-19
%%humdrum-veritas 1687409881
%%humdrum-veritas-data 1204897154
%%linebreak <none>
%%barnumbers 0
L: 1/4
M: C|
N: Derived from pl-wn--sd-xvi-qu-273--119_gomolka-mikolaj--szczesliwi-ktorzy-sie-panskim-zakonem-sprawuja.krn
%%staves [1 2 3 4]
V: 1
V: 2 clef=alto
V: 3 clef=alto
V: 4 clef=bass
K: C
[V:1] A4A2A2 [|] 
[V:2] F4F2F2 [|] 
[V:3] D4D2A,2 [|] 
[V:4] D,4D,2D,2 [|] 
[V:1] c2B2A2E2 [|] 
[V:2] E2>D2^C2C2 [|] 
[V:3] A,2^G,2A,2A,2 [|] 
[V:4] A,,2E,2A,,2A,,2 [|] 
[V:1] F2>F2F2E2 [|] 
[V:2] D2>D2D2G,2 [|] 
[V:3] A,2>G,2A,B,C4 [|] 
[V:4] D,2>D,2D,2C,2 [|] 
[V:1] C2D2E2G4 [|] 
[V:2] A,4B,2E4 [|] 
[V:3] B,A,^G,2B,4 [|] 
[V:4] F,4E,2E,4 [|] 
[V:1] A2c4 [|] 
[V:2] F2G4 [|] 
[V:3] D2E4 [|] 
[V:4] D,2C,4 [|] 
[V:1] B2c2A2A2 [|] 
[V:2] G2G2F2D2 [|] 
[V:3] D2E2DCB,A, [|] 
[V:4] G,,2C,2D,2F,2 [|] 
[V:1] G2c4B2 [|] 
[V:2] E2E4E2 [|] 
[V:3] B,2A,4^G,2 [|] 
[V:4] E,2A,,4E,2 [|] 
[V:1] A2A4G2 [|] 
[V:2] C2F2E3D [|] 
[V:3] A,2>B,2C2B,2 [|] 
[V:4] F,2>G,2A,2E,2 [|] 
[V:1] A4 :|]  
[V:2] ^C4 :|]  
[V:3] A,4 :|]  
[V:4] A,,4 :|]  
[V:1] G2>G2G2E2 [I:setbarnb 1010][|] 
[V:2] E2>E2D2C2 [|] 
[V:3] G,2>G,2B,2C2 [|] 
[V:4] C,2>C,2G,2A,2 [|] 
[V:1] A2GFE2^F2 [|] 
[V:2] E2D2E2DC [|] 
[V:3] C2B,2C2A,2 [|] 
[V:4] F,2G,2C,2D,2 [|] 
[V:1] G2B4c2 [|] 
[V:2] B,2G2G2E2 [|] 
[V:3] G,2D2EDCB, [|] 
[V:4] G,,2G,2E,2A,G, [|] 
[V:1] ABc4B2 [|] 
[V:2] F2C2G3F [|] 
[V:3] C2FEDCD2 [|] 
[V:4] F,2F,2G,2G,,2 [|] 
[V:1] c2c4B2 [|] 
[V:2] E2G2FEE4 [|] 
[V:3] C2EDC2G,2 [|] 
[V:4] C,2CB,A,2G,2 [|] 
[V:1] A4G2A4 [|] 
[V:2] D2E2E2 [|] 
[V:3] A,G,A,B,2<C2B, [|] 
[V:4] F,4E,2A,G, [|] 
[V:1] G2F4 [|] 
[V:2] F2C2D4 [|] 
[V:3] A,B,C4B,2 [|] 
[V:4] F,2E,2D,4 [|] 
[V:1] E2G4G2 [|] 
[V:2] G,2E4D2 [|] 
[V:3] C2C4B,2 [|] 
[V:4] C,2C,4G,2 [|] 
[V:1] E2F2D4 [|] 
[V:2] A,B,C2G,4 [|] 
[V:3] C2A,2B,C2B, [|] 
[V:4] A,2F,2G,4 [|] 
[V:1] E4z2c2 [|] 
[V:2] G,4z2G2 [|] 
[V:3] C4z2ED [|] 
[V:4] C,4z2CB, [|] 
[V:1] c2c2d2d2 [|] 
[V:2] A2>G2FEF2 [|] 
[V:3] CB,A,2B,C2B, [|] 
[V:4] A,G,F,E,D,C,D,2 [|] 
[V:1] e2>d2c2e2 [|] 
[V:2] G2G2A2A2 [|] 
[V:3] C2E4E2 [|] 
[V:4] C,2CB,2<A,2G, [|] 
[V:1] d2c2c2B2 [|] 
[V:2] A2A2G3F [|] 
[V:3] F2>E2DCD2 [|] 
[V:4] F,2F,2G,2G,2 [|] 
[V:1] c32 [|] 
[V:2] E32 [|] 
[V:3] C32 [|] 
[V:4] C,32 [|] 


